icons/icn_vector.svg

<svg width="24" xmlns="http://www.w3.org/2000/svg" height="24" id="screenshot-e387bb83-ae60-800e-8006-366ae6e63e47" viewBox="0 0 24 24" xmlns:xlink="http://www.w3.org/1999/xlink" fill="none" version="1.1"><g id="shape-e387bb83-ae60-800e-8006-366ae6e63e47"><g class="frame-container-wrapper"><g class="frame-container-blur"><g class="frame-container-shadows"><g fill="none"><g class="fills" id="fills-e387bb83-ae60-800e-8006-366ae6e63e47"><rect rx="0" ry="0" x="0" y="0" width="24" height="24" transform="matrix(1, 0, 0, 1, 0, 0)" class="frame-background"/></g><g class="frame-children"><g id="shape-e387bb83-ae60-800e-8006-366ae6e63e5c" rx="0" ry="0" style="fill: rgb(0, 0, 0);"><g id="shape-e387bb83-ae60-800e-8006-366ae6e63e5d"><g class="fills" id="fills-e387bb83-ae60-800e-8006-366ae6e63e5d"><path d="M3.476619005203247,2.7317049503326416C3.062312364578247,2.7339022159576416,2.728327989578247,3.0714266300201416,2.730525255203247,3.4856112003326416L2.730525255203247,8.518814086914062C2.728327989578247,8.932998657226562,3.062312364578247,9.270523071289062,3.476619005203247,9.272720336914062L5.248103141784668,9.272720336914062L5.248103141784668,14.735610961914062L3.476619005203247,14.735610961914062C3.066218614578247,14.737808227539062,2.733699083328247,15.069351196289062,2.730525255203247,15.479751586914062L2.730525255203247,20.522720336914062C2.732722520828247,20.933853149414062,3.065486192703247,21.266616821289062,3.476619005203247,21.268814086914062L8.519587516784668,21.268814086914062C8.932917594909668,21.269912719726562,9.269343376159668,20.936172485351562,9.271540641784668,20.522720336914062L9.271540641784668,15.479751586914062C9.268366813659668,15.067153930664062,8.932185173034668,14.734634399414062,8.519587516784668,14.735610961914062L6.746150016784668,14.735610961914062L6.746150016784668,9.272720336914062L8.519587516784668,9.272720336914062C8.719538688659668,9.273208618164062,8.911433219909668,9.193862915039062,9.052546501159668,9.052383422851562C9.193659782409668,8.910781860351562,9.272517204284668,8.718765258789062,9.271540641784668,8.518814086914062L9.271540641784668,6.7473297119140625L14.726618766784668,6.7473297119140625L14.726618766784668,8.518814086914062C14.725642204284668,8.719131469726562,14.804743766784668,8.911514282226562,14.946345329284668,9.053115844726562C15.087946891784668,9.194717407226562,15.280329704284668,9.273818969726562,15.480525016784668,9.272720336914062L20.521541595458984,9.272720336914062C20.935848236083984,9.270523071289062,21.269832611083984,8.932998657226562,21.267635345458984,8.518814086914062L21.267635345458984,3.4856112003326416C21.269832611083984,3.0714266300201416,20.935848236083984,2.7339022159576416,20.521541595458984,2.7317049503326416L15.480525016784668,2.7317049503326416C15.280329704284668,2.7307283878326416,15.087946891784668,2.8098299503326416,14.946345329284668,2.9514315128326416C14.804743766784668,3.0930330753326416,14.725642204284668,3.2854158878326416,14.726618766784668,3.4856112003326416L14.726618766784668,5.2492828369140625L9.271540641784668,5.2492828369140625L9.271540641784668,3.4856112003326416C9.272517204284668,3.2856600284576416,9.193659782409668,3.0936434268951416,9.052546501159668,2.9521639347076416C8.911433219909668,2.8105623722076416,8.719538688659668,2.7312166690826416,8.519587516784668,2.7317049503326416ZM4.230525016784668,4.2297515869140625L7.773493766784668,4.2297515869140625L7.773493766784668,7.7746734619140625L4.230525016784668,7.7746734619140625ZM16.232479095458984,4.2297515869140625L19.769588470458984,4.2297515869140625L19.769588470458984,7.7746734619140625L16.232479095458984,7.7746734619140625ZM4.230525016784668,16.233657836914062L7.773493766784668,16.233657836914062L7.773493766784668,19.768814086914062L4.230525016784668,19.768814086914062Z" style="stroke-linejoin: round; paint-order: markers; fill: rgb(0, 0, 0); fill-opacity: 1;"/></g></g><g id="shape-e387bb83-ae60-800e-8006-366ae6e63e5e"><g class="fills" id="fills-e387bb83-ae60-800e-8006-366ae6e63e5e"><path d="M11.527644157409668,12.496963500976562L15.214655876159668,21.345840454101562C15.257624626159668,21.448989868164062,15.363825798034668,21.511123657226562,15.474665641784668,21.498428344726562C15.585749626159668,21.485610961914062,15.674860954284668,21.400894165039062,15.693171501159668,21.290664672851562L16.278133392333984,17.781021118164062C16.363826751708984,17.266738891601562,16.766902923583984,16.863784790039062,17.281063079833984,16.778091430664062L20.790584564208984,16.193130493164062C20.900936126708984,16.174819946289062,20.985652923583984,16.085708618164062,20.998348236083984,15.974746704101562C21.011287689208984,15.863662719726562,20.949031829833984,15.757705688476562,20.845760345458984,15.714736938476562L11.996882438659668,12.027603149414062C11.862605094909668,11.971694946289062,11.708064079284668,12.002334594726562,11.605280876159668,12.105117797851562C11.502253532409668,12.208023071289062,11.471735954284668,12.362686157226562,11.527644157409668,12.496963500976562Z" style="stroke: none; stroke-width: 0.265; stroke-linejoin: round; stroke-dasharray: none; paint-order: markers; fill: rgb(0, 0, 0); fill-opacity: 1;"/></g></g></g></g></g></g></g></g></g></svg>

<svg fill="none" viewBox="0 0 24 24"><g class="frame-container-wrapper"><g class="frame-container-blur"><g class="frame-container-shadows"><g class="fills"><rect width="24" height="24" class="frame-background" rx="0" ry="0"/></g><g fill="#000" class="frame-children"><path d="M3.4766 2.7317a.75.75 0 0 0-.746.754v5.0331a.75.75 0 0 0 .746.754h1.7715v5.4628H3.4766a.75.75 0 0 0-.746.7442v5.043a.7501.7501 0 0 0 .746.746h5.043a.7501.7501 0 0 0 .752-.746v-5.043a.7502.7502 0 0 0-.752-.7442H6.7462V9.2727h1.7734a.7502.7502 0 0 0 .752-.7539V6.7473h5.455v1.7715a.7504.7504 0 0 0 .754.754h5.041a.75.75 0 0 0 .746-.754V3.4856a.75.75 0 0 0-.746-.7539h-5.041a.7503.7503 0 0 0-.754.754v1.7636h-5.455V3.4856a.7502.7502 0 0 0-.752-.7539Zm.754 1.498h3.5429v3.545h-3.543Zm12.0019 0h3.537v3.545h-3.537Zm-12.002 12.004h3.543v3.5351h-3.543Z" class="fills" paint-order="markers"/><path d="m11.5276 12.497 3.687 8.8488a.2505.2505 0 0 0 .4785-.0552l.585-3.5096a1.2201 1.2201 0 0 1 1.003-1.003l3.5095-.5849a.2502.2502 0 0 0 .2077-.2184.2502.2502 0 0 0-.1525-.26l-8.849-3.6871a.3587.3587 0 0 0-.3915.0775.3587.3587 0 0 0-.0777.3919Z" class="fills" paint-order="markers"/></g></g></g></g></svg>
